X: 105203
Q:"Strathspey."
M: C
L: 1/16
K: A
|:\
vAA3 c3uA d4 (B3=G) | AA3 c3A e4 (c2A2) |\
e4 c2A2 d4 B2=G2 | AA3 c2e2 (dB3) e4 :|\
=g3a g3e dg3 BG3 | AA3 c3e (dB3) e4 |\
=g3a g3e dg3 BG3 | A3A =g2e2 (dB3) e4 |]


